X: 13070
T: Finnish, The
R: polka
M: 2/4
K: Amajor
|:aa/a/ aa/a/|ag/a ba|ff/f/ ff/f|f^e/f/ gf|
ee/e/ dd/d/|cc/c/ BA|ag fe|d2 d2:|
A/B/A/F/ AD|f2 f2|fe/f/ gf|e2 z2|
ee/e/ dd/d/|cc/c/ ba|ag fe|d2 d2:|

